src/assets/flags/sg.svg

<?xml version="1.0" encoding="UTF-8"?>
<svg xmlns="http://www.w3.org/2000/svg" xmlns:xlink="http://www.w3.org/1999/xlink" width="25px" height="px" viewBox="0 0 25 19" version="1.1">
<g id="surface1">
<rect x="0" y="0" width="25" height="19" style="fill:rgb(100%,100%,100%);fill-opacity:1;stroke:none;"/>
<path style=" stroke:none;fill-rule:evenodd;fill:rgb(87.450981%,0%,0%);fill-opacity:1;" d="M -0.78125 0 L 27.34375 0 L 27.34375 9.5 L -0.78125 9.5 Z M -0.78125 0 "/>
<path style=" stroke:none;fill-rule:evenodd;fill:rgb(100%,100%,100%);fill-opacity:1;" d="M 5.703125 1.589844 C 4.179688 1.921875 3.089844 3.292969 3.097656 4.875 C 3.105469 6.453125 4.207031 7.8125 5.734375 8.128906 C 4.875 8.382812 3.957031 8.277344 3.171875 7.839844 C 2.390625 7.402344 1.816406 6.664062 1.570312 5.796875 C 1.070312 3.992188 2.097656 2.117188 3.875 1.597656 C 4.5 1.417969 5.078125 1.414062 5.707031 1.589844 Z M 5.703125 1.589844 "/>
<path style=" stroke:none;fill-rule:evenodd;fill:rgb(100%,100%,100%);fill-opacity:1;" d="M 5.195312 4.355469 L 5.386719 4.949219 L 4.878906 4.582031 L 4.378906 4.957031 L 4.5625 4.355469 L 4.0625 3.984375 L 4.683594 3.976562 L 4.878906 3.382812 L 5.074219 3.976562 L 5.691406 3.976562 Z M 5.878906 6.414062 L 6.074219 7.011719 L 5.566406 6.644531 L 5.0625 7.015625 L 5.25 6.417969 L 4.75 6.042969 L 5.371094 6.039062 L 5.5625 5.441406 L 5.757812 6.035156 L 6.382812 6.035156 Z M 8.164062 6.398438 L 8.355469 7 L 7.847656 6.628906 L 7.347656 7 L 7.53125 6.402344 L 7.03125 6.03125 L 7.652344 6.023438 L 7.847656 5.429688 L 8.042969 6.023438 L 8.660156 6.023438 Z M 8.84375 4.355469 L 9.035156 4.953125 L 8.527344 4.585938 L 8.027344 4.957031 L 8.214844 4.359375 L 7.710938 3.984375 L 8.335938 3.980469 L 8.523438 3.382812 L 8.71875 3.976562 L 9.34375 3.976562 Z M 7.035156 2.996094 L 7.230469 3.597656 L 6.722656 3.230469 L 6.21875 3.601562 L 6.40625 3 L 5.90625 2.628906 L 6.523438 2.625 L 6.71875 2.027344 L 6.914062 2.621094 L 7.539062 2.621094 Z M 7.035156 2.996094 "/>
</g>
</svg>

<svg xmlns="http://www.w3.org/2000/svg" width="25" height="px" viewBox="0 0 25 19"><path d="M0 0h25v19H0z" style="fill:#fff;fill-opacity:1;stroke:none"/><path d="M-.781 0h28.125v9.5H-.781Zm0 0" style="stroke:none;fill-rule:evenodd;fill:#df0000;fill-opacity:1"/><path d="M5.703 1.59C4.18 1.922 3.09 3.293 3.098 4.875c.007 1.578 1.109 2.938 2.636 3.254a3.32 3.32 0 0 1-2.562-.29A3.4 3.4 0 0 1 1.57 5.798c-.5-1.805.528-3.68 2.305-4.2a3.2 3.2 0 0 1 1.832-.007Zm0 0" style="stroke:none;fill-rule:evenodd;fill:#fff;fill-opacity:1"/><path d="m5.195 4.355.192.594-.508-.367-.5.375.184-.602-.5-.37.62-.008.196-.594.195.594h.617Zm.684 2.06.195.597-.508-.367-.503.37.187-.597-.5-.375.621-.004.191-.598.196.594h.625Zm2.285-.017L8.355 7l-.507-.371-.5.371.183-.598-.5-.37.621-.009.196-.593.195.593h.617Zm.68-2.043.191.598-.508-.367-.5.371.188-.598-.504-.375.625-.004.187-.597.196.594h.625ZM7.035 2.996l.195.602-.507-.368-.504.372L6.406 3l-.5-.371.617-.004.196-.598.195.594h.625Zm0 0" style="stroke:none;fill-rule:evenodd;fill:#fff;fill-opacity:1"/></svg>
